X: 1
T: An Chearc Ar Fad Is An Anairthe
M: 12/8
L: 1/8
R: slide
K: Gmaj
g2d ded B2G GAG|ABA DEF G2B def|
g2d ded B2G GAG|ABA DEF GAG ~G3:|
~d3 d^cd ~b3 bag|~a3 e2f ~g3 edB|
~d3 d^cd ~b3 bag|~a3 e2f gag g2B:|
